X:1
T:Lamentations- 4 voices
T:Alexander Agricola
T:Lamentations- 4 voices Lectio prima
C:Jean Mouton
%%score [ 1 2 3 4 ]
L:1/8
Q:1/4=100
M:4/2
K:C
V:1 treble nm="Soprano" snm="S"
V:2 treble-8 nm="Alto" snm="A"
V:3 bass nm="Tenor" snm="T"
V:4 bass nm="Bass" snm="B"
V:1
 A8 A8 | G4 F4 G8 | F6 ED C6 D2 | E4 F6 ED E4 | F16 ||[Q:1/4=140] z16 | z8 F8 | G4 A6 ^G^F G4 | %8
w: A- leph,|A- * *|||leph.||Quo-|mo- do _ _ _|
 A8 z4 F4 | F4 F4 F4 F4- | F2 F2 F4 F4 G2 G2- | G2 FE F4 G4 F4 | D4 G6 F2 E2 D2 | %13
w: _ ob-|te- xit ca- li-|* gi- ne in fu- ro-|* * * * re _|_ su- * * *|
 C3 D E2 F2 E2 D4 ^C2 | D4 z4 F8 | G4 A8 A4- | A2 A2 A4 A4 A4- | A4 A4 _B8 | A4 A4 G3 F G2 A2- | %19
w: |o Do-|mi- nus fi-|* li- am Si- on:|_ pro- je-|cit de coe- * * *|
 A2 F2 G4 F3 E C2 D2 | E2 F4 E2 F4 z4 | F8 D4 C4- | C4 C8 C4 | C4 c6 B2 A3 G | F4 D4 E4 F4- | %25
w: |* * * lo|in ter- ram|_ in- cli-|tam Je- * * *|ru- * * *|
 F2 G3 FED C2 D4 ^C2 | D8 z8 | F8 G4 G4 | G8 G4 G4- | G4 G4 G4 G4- | G4 A4 _B6 A2 | %31
w: * sa- * * * * * *|lem,|et non est|re- cor- da-|* tus sca- bel-|* li pe- *|
 G4 c6 _B2 A2 G2 | F8 F4 F4- | F2 ED E4 F8 | z4 A8 _B4 | A3 G F2 E2 D2 G4 F2- | FE E4 D2 C4 G4- | %37
w: * dum _ _ _|_ su- o-|* * * * rum|in di-|e _ _ _ fu- ro- *|* * * * * ris|
 G4 F6 ED E4 | F16 ||[Q:1/4=100] A8 A4 c4- | c2 B2 A2 GF E6 D2 | E8 F8- | F16 ||[Q:1/4=140] z16 | %44
w: _ su- * * *|i.|Beth. _ _|_ _ _ _ _ _ _||||
 z16 | z16 | z16 | z16 | z16 | z16 | z16 | z16 | z16 | z16 | z16 | z16 | z16 | z16 | z16 | z16 | %60
w: ||||||||||||||||
 z16 | F8 G8 | A8 A4 A4- | A4 A4 A6 A2 | A4 c4 _B3 A A4- | A2 ^G^F G4 A8 | z4 A8 A4 | %67
w: |de- je-|cit in ter-|* ram: pol- lu-|it reg- * * *|* * * * num,|et prin-|
 _B6 A2 G4 F4 | E4 G8 G4 | A4 G6 F2 F4- | F4 E4 F8 ||[Q:1/4=100] z16 | z16 | z16 | F8 G4 G4 | %75
w: |ci- pes e-||* * jus.||||Je- ru- sa-|
 A4 F4 E4 E4 | F6 ED C8 | z8 D4 D4- | D4 D4 D6 E2 | F6 ED C2 A,2 D4- | D2 CB, C4 D4 F4 | %81
w: lem, Je- ru- sa-|lem, _ _ _|con- ver-|* te- re ad|Do- * * * * mi-|* * * * num _|
 E4 D6 C2 C4- | C4 B,4 C4 c4- | c2 B2 A2 GF G4 F4- | F4 E4 F8 |] %85
w: De- * * *|* * um _|_ _ _ _ _ _ tu-|* * um.|
V:2
 A6 B2 c4 d4 | e4 f6 ed e4 | f4 d4 e4 f4 | z2 c3 A B2 c8 | A3 B c12 || z16 | c8 d8 | e4 d4 e8 | %8
w: A- * * *||leph, _ _ _|A- * * *|* * leph.||Quo- mo-|do _ _|
 c8 z4 d4 | d4 d4 d4 d4- | d2 d2 d4 d8 | d6 d4 c2 d4 | z8 G8 | E6 A3 G F2 E4 | D4 z4 c6 d2 | %15
w: _ ob-|te- xit ca- li-|* gi- ne in|fu- ro- * re|su-|* * * * o|_ Do- *|
 e4 f8 f4- | f2 f2 f4 f4 f4- | f4 f4 f8 | f4 f4 e6 c2 | d2 f4 e2 f4 z4 | z16 | c8 B4 A4- | %22
w: mi- nus fi-|* li- am Si- on:|_ pro- je-|cit de coe- *|* * * lo||in ter- ram|
 A4 A8 A4 | A3 G AB c2 A2 d4 ^c2 | d6 c2 _B4 A4 | _B4 G4 A8 | z8 c8 | d8 e8 | e8 e4 e4- | %29
w: _ in- cli-|tam _ _ _ _ Je- * *|ru- * * *|sa- * lem,|et|non est|re- cor- da-|
 e4 e4 e4 e4- | e4 e4 f8 | e16 | d8 d8 | c8 A8 | d4 c4 d6 e2 | f4 z4 _B3 A G2 c2- | cB c2 A8 z4 | %37
w: * tus sca- bel-|* li pe-|dum|su- o-|* rum|in di- * *|e fu- * * ro-|* * * ris|
 c8 c8- | c16 || c8 f6 ed | e4 f4 z4 c4- | c4 c6 _B2 A2 G2 | A16 || c6 BA G4 c4 | B2 A4 GF G4 C4- | %45
w: su- i.|_|Beth, _ _ _|_ _ Beth.|_ _ _ _ _||Prae- * * ci- pi-|ta- * * * * vit|
 C4 G4- G2 G2 G4 | G4 G4 G3 A B2 c2 | B2 G4 c2 B3 c d4 | d4 e4- e2 d2 c4 | B4 A2 d4 c2 d3 c | %50
w: _ Do- * mi- nus,|nec pe- per- * * *|* * cit om- * ni-|a spe- * * ci-|o- * * * sa _|
 d2 e4 d2 e8 | A8 _B6 AG | F8 z4 c4- | c4 c4 e4 f4 | d6 cB c4 F4- | F2 ED C2 D4 CB, A,2 D2 | %56
w: Ja- * * cob:|des- tru- * *|xit in|_ fu- ro- re|su- * * o mu-|* * * * * * * ni- *|
 C2 F3 GAB c6 BA | G8 z4 c4- | c4 c4 B4 d4- | d2 B2 c4 F4 A4 | G8 F8 | c8 d6 e2 | f8 f4 f4- | %63
w: ti- o- * * * nes _ _|_ vir-|* gi- nes Ju-||* da,|de- je- *|cit in ter-|
 f4 f4 f6 f2 | f4 f6 ed c2 d2 | e6 d2 c8 | z4 f6 ed e4 | f3 e f2 d3 c c4 B2 | c8 d6 e2 | %69
w: * ram: pol- lu-|it reg- * * * *|* * num,|et _ _ _|prin- * * * * * *|ci- pes _|
 f2 d4 c4 BA B4 | c8 c8 || z16 | F8 G4 G4 | A6 GF E3 D E4 | F4 c6 BA G4 | c16 | A16 | z8 _B4 B4- | %78
w: e- * * * * *|* jus.||Je- ru- sa-|lem, _ _ _ _ Je-|ru- * * * *|sa-|lem,|con- ver-|
 B4 _B4 B4 B2 B2- | B2 AG F2 G2 A4 _B4 | A4 A4 F8 | z4 _B6 A2 G3 F | G4 G4 E6 F2 | G4 A4 z2 G2 c4 | %84
w: * te- re ad Do-||* mi- num|De- * * *|* um De- *|* * * um|
 c8 c8 |] %85
w: tu- um.|
V:3
 z16 | z16 | A,8 A,8 | G,4 F,4 G,8 | F,16 || z8 F,8 | G,8 A,8 | C4 A,4 B,8 | A,8 z4 A,4 | %9
w: ||A- leph,|A- * *|leph.|Quo-|mo- do|_ _ _|* ob-|
 A,4 A,4 A,4 A,4- | A,2 A,2 A,4 _B,4 B,4 | A,8 G,4 A,4 | _B,16 | A,16 | z8 A,8 | G,4 F,4 A,4 C4- | %16
w: te- xit ca- li-|* gi- ne in fu-|ro- re _|su-|o|Do-|mi- nus _ fi-|
 C2 C2 C4 C4 C4- | C4 D4 D8 | C4 C4 C4 B,2 A,2 | F,4 C4 A,6 B,2 | C2 A,2 G,4 F,4 z4 | %21
w: * li- am Si- on:|_ pro- je-|cit de coe- * *||* * * lo|
 F,4 A,4 G,4 E,4- | E,4 E,8 E,4 | E,8 F,4 E,4 | D,4 F,4 G,4 A,4 | D,8 E,8 | D,8 A,8 | %27
w: in _ ter- ram|_ in- cli-|tam Je- *|ru- * * *|sa- *|lem, et|
 A,6 G,F, C4 C4 | C8 C4 C4- | C4 C4 C4 C4- | C4 C4 D8 | C6 _B,A, G,4 C4 | A,8 _B,6 A,2 | %33
w: non _ _ _ est|re- cor- da-|* tus sca- bel-|* li pe-|dum _ _ _ _|su- o- *|
 G,2 F,2 G,4 F,8 | z4 F,8 G,4 | A,8 _B,6 A,2 | G,4 F,4 E,6 F,2 | G,4 A,4 G,8 | F,16 || A,16 | %40
w: * * * rum|in di-|e fu- *|ro- ris su- *||i.|Beth.|
 G,4 F,4 G,8- | G,8 F,8- | F,16 || z16 | z16 | z16 | z16 | z16 | z16 | z16 | z16 | F,8 G,8 | %52
w: _ _ _|||||||||||des- tru-|
 A,8 A,8 | A,4 A,8 A,4 | _B,8 A,8 | z4 A,4 A,4 A,4 | A,8 A,8 | z4 _B,8 A,4 | A,8 G,6 F,2 | %59
w: xit in|fu- ro- re|su- o|mu- ni- ti-|o- nes|vir- gi-|nes Ju- *|
 G,4 A,6 G,2 F,4- | F,4 E,4 F,8 | A,8 _B,8 | A,8 C4 C4 | C4 C6 C2 C4- | C4 C4 D4 A,4 | B,8 A,8 | %66
w: |* * da,|de- je-|cit in ter-|ram: pol- lu- it|_ reg- * *|* num,|
 z4 D4 A,4 C4 | D4 D,4 E,4 F,4 | G,6 A,2 _B,8 | A,4 _B,4 F,8 | G,8 F,8 || z16 | z16 | F,8 G,4 G,4 | %74
w: et prin- *||ci- * pes|e- * *|* jus.|||Je- ru- sa-|
 A,6 G,F, E,4 E,4 | F,4 A,4 G,4 G,4 | F,16 | z8 F,4 F,4- | F,4 F,4 F,8 | D,6 E,2 F,4 G,4 | %80
w: lem, _ _ _ Je-|ru- * * sa-|lem,|con- ver-|* te- re|ad _ Do- *|
 E,4 E,4 D,8 | G,8 F,4 E,4 | D,8 C,8 | C8 B,4 A,4 | G,8 F,8 |] %85
w: * mi- num|De- * *|* um|tu- * *|* um.|
V:4
 z16 | z8 C,8 | D,6 C,_B,, A,,4 F,,4 | C,4 D,4 C,8 | F,,16 || C,8 D,8 | E,8 D,8 | C,4 F,4 E,8 | %8
w: |A-|||leph.|Quo- mo-|do _|_ _ _|
 A,,8 z4 D,4 | D,4 D,4 D,4 D,4- | D,2 D,2 D,4 _B,,4 G,,4 | D,4 D,4 E,4 D,4- | %12
w: * ob-|te- xit ca- li-|* gi- ne in fu-|ro- re su- *|
 D,2 C,2 _B,,2 A,,2 G,,8 | A,,16 | A,4 z4 F,8 | C,4 F,8 F,4- | F,2 F,2 F,4 F,4 F,4- | %17
w: |o|_ Do-|mi- nus fi-|* li- am Si- on:|
 F,2 E,2 D,2 C,2 _B,,8 | F,4 F,4 C,3 D, E,2 F,2 | D,4 C,4 F,8 | z16 | F,,8 G,,4 A,,4- | %22
w: _ _ pro- * je-|cit de coe- * * *|* * lo||in ter- ram|
 A,,4 A,,8 A,,4 | A,,8 z4 A,,4 | _B,,6 A,,2 G,,4 F,,4 | _B,,8 A,,8 | D,8 z4 F,4- | %27
w: _ in- cli-|tam Je-|ru- * * *|sa- *|lem, et|
 F,2 E,2 D,4 C,8 | C,8 C,4 C,4- | C,4 C,4 C,4 C,4- | C,4 C,4 _B,,8 | C,8 C,8 | D,8 _B,,8 | %33
w: _ _ non est|re- cor- da-|* tus sca- bel-|* li pe-|dum su-|o- rum|
 C,8 D,4 D,4- | D,2 E,2 F,4 D,4 z2 G,2 | F,3 E, D,2 C,2 _B,,2 _E,4 F,2 | %36
w: _ in di-|* * e _ fu-|ro- * * * * * *|
 C,4 D,4 A,,3 _B,, C,2 D,2 | E,2 C,2 F,4 C,8 | F,,16 || F,16 | C,4 D,4 C,8- | C,8 [F,,F,]8- | %42
w: ris _ su- * * *||i.|Beth.|_ _ _||
 [F,,F,]16 || C,16 | D,8 E,4 E,4- | E,4 E,4 E,6 E,2 | E,4 E,4 E,4 E,4- | E,4 E,4 G,8 | %48
w: |Prae-|ci- pi- ta-|* vit Do- mi-|nus, nec pe- per-|* cit om-|
 F,4 E,4 A,8 | G,4 F,4 E,4 D,4 | F,2 E,2 F,4 E,8 | z16 | z16 | z16 | z16 | z16 | z16 | z16 | z16 | %59
w: ni- a spe-|ci- o- sa _|Ja- * * cob:|||||||||
 z16 | z16 | z16 | F,8 F,4 F,4 | F,4 F,4 F,4 F,4- | F,2 F,2 F,4 _B,,4 F,4 | E,8 A,,8 | z4 D,8 C,4 | %67
w: |||de- je- cit|in ter- ram: pol-|* lu- it reg- *|* num,|et _|
 _B,,8 C,4 D,4 | C,6 _B,,A,, G,,4 G,4 | F,4 E,4 D,8 | C,8 F,,8 || F,8 G,4 G,4 | %72
w: prin- * *|ci- * * pes _|e- * *|* jus.|Je- ru- sa-|
 A,6 G,F, E,3 D, E,4 | F,4 D,4 C,8 | F,,8 C,8 | z4 F,,4 C,4 C,4 | D,6 C,_B,, A,,3 G,, F,,4 | %77
w: lem, _ _ _ _ Je-|ru- * *|sa- lem,|Je- ru- sa-|lem, _ _ _ _ _|
 z8 _B,,4 B,,4- | B,,4 _B,,4 B,,8 | _B,,8 A,,4 G,,4 | A,,8 _B,,8 | C,4 _B,,8 C,4 | G,,8 G,8 | %83
w: con- ver-|* te- re|ad Do- *|mi- num|De- * *|* um|
 C,2 D,E, F,2 C,2 E,4 F,4 | C,8 F,,8 |] %85
w: tu- * * * * * *|* um.|

